( pcb2gcode 1.3.2 )
( Software-independent Gcode )

G94 ( Millimeters per minute feed rate. )
G21 ( Units == Millimeters. )

G90 ( Absolute coordinates. )
S10000 ( RPM spindle speed. )
F200.00000 ( Feedrate. )

F200.00000 ( Feedrate. )
M3 ( Spindle on clockwise. )
G04 P0 ( dwell for no time -- G64 should not smooth over this point )
G00 Z2.00000 ( retract )

G00 X7.03343 Y9.26708 ( rapid move to begin. )
F100.00000
G01 Z-0.20000
G04 P0 ( dwell for no time -- G64 should not smooth over this point )
F200.00000
X7.03343 Y9.26708
X7.03343 Y9.91707
X3.64832 Y9.91707
X3.64832 Y9.26708
X7.03343 Y9.26708
G04 P0 ( dwell for no time -- G64 should not smooth over this point )
G00 Z2.00000 ( retract )

G00 X7.03343 Y9.91707 ( rapid move to begin. )
F100.00000
G01 Z-0.20000
G04 P0 ( dwell for no time -- G64 should not smooth over this point )
F200.00000
X7.03343 Y9.91707
X7.03691 Y10.28207
X6.70925 Y10.56708
X3.64832 Y10.56708
X3.64832 Y9.91707
X7.03343 Y9.91707
G04 P0 ( dwell for no time -- G64 should not smooth over this point )
G00 Z2.00000 ( retract )

G00 X6.70925 Y10.56708 ( rapid move to begin. )
F100.00000
G01 Z-0.20000
G04 P0 ( dwell for no time -- G64 should not smooth over this point )
F200.00000
X6.70925 Y10.56708
X6.19409 Y11.09210
X6.09805 Y11.17135
X6.00201 Y11.21709
X3.64832 Y11.21709
X3.64832 Y10.56708
X6.70925 Y10.56708
G04 P0 ( dwell for no time -- G64 should not smooth over this point )
G00 Z2.00000 ( retract )

G00 X14.50842 Y10.21577 ( rapid move to begin. )
F100.00000
G01 Z-0.20000
G04 P0 ( dwell for no time -- G64 should not smooth over this point )
F200.00000
X14.50842 Y10.21577
X14.58594 Y10.37828
X14.67975 Y10.69078
X14.67975 Y12.21930
X14.90233 Y12.58448
X15.21409 Y12.94968
X14.95988 Y13.32923
X14.82239 Y13.56652
X14.63029 Y13.96718
X14.49776 Y14.33675
X14.31627 Y15.09328
X14.11851 Y15.65384
X13.02905 Y16.74329
X11.55590 Y17.35350
X11.37709 Y17.40562
X11.25075 Y17.41670
X7.92078 Y17.41451
X7.72815 Y17.37532
X7.16079 Y17.14261
X6.21847 Y16.19920
X6.10214 Y16.05955
X5.95848 Y15.80972
X5.46590 Y14.62300
X5.46590 Y14.40139
X5.74761 Y14.02781
X5.88304 Y13.79606
X5.97905 Y13.58640
X6.07049 Y13.29580
X6.11187 Y13.02865
X6.11654 Y12.54122
X6.06605 Y12.16786
X5.82046 Y12.05552
X5.57443 Y11.97119
X5.39280 Y11.93827
X5.12371 Y11.93540
X4.84009 Y11.99164
X4.25213 Y12.23042
X3.75251 Y12.37543
X3.67121 Y12.05875
X3.64408 Y11.74208
X3.64832 Y11.21709
X6.00201 Y11.21709
X6.09805 Y11.17135
X6.19409 Y11.09210
X6.70925 Y10.56708
X7.03691 Y10.28207
X7.03691 Y8.74209
X7.01062 Y8.39917
X6.93173 Y8.05624
X6.93569 Y7.53549
X6.91332 Y7.19990
X6.86368 Y6.89404
X6.66191 Y6.62637
X6.54563 Y6.28662
X6.47329 Y6.01278
X6.56562 Y5.59912
X6.69543 Y5.20252
X6.84367 Y4.87453
X7.05827 Y4.52229
X7.33889 Y4.18843
X7.68116 Y4.06537
X7.94163 Y4.00712
X8.22528 Y3.97697
X8.43422 Y3.97697
X8.67780 Y4.00075
X8.97831 Y4.06537
X9.24554 Y4.15510
X9.44526 Y4.37106
X9.62047 Y4.60656
X9.78067 Y4.87824
X9.94420 Y5.25066
X9.88870 Y5.75215
X9.77498 Y6.19569
X9.35923 Y6.37491
X9.01588 Y6.47788
X8.90922 Y6.60554
X8.83305 Y6.73318
X8.78733 Y6.86084
X8.77209 Y6.98850
X8.77209 Y8.38850
X8.78880 Y8.52218
X8.83894 Y8.65583
X8.92248 Y8.78951
X9.03947 Y8.92319
X9.77310 Y9.65685
X9.71870 Y10.07485
X9.71405 Y10.70536
X9.76896 Y10.83790
X10.00381 Y11.09284
X10.23559 Y11.39446
X10.47272 Y11.80368
X10.56906 Y12.03998
X10.63160 Y12.25786
X10.66751 Y12.46390
X10.68075 Y12.71386
X10.66751 Y12.91305
X10.63160 Y13.11909
X10.56906 Y13.33698
X10.43945 Y13.63855
X10.29451 Y13.75509
X10.07191 Y13.90055
X9.81262 Y14.03294
X9.60025 Y14.11917
X8.63424 Y13.59570
X8.22528 Y13.58262
X7.66345 Y13.63192
X7.47328 Y13.93929
X7.32226 Y14.24805
X7.24204 Y14.45699
X7.14847 Y14.80212
X7.10994 Y15.06252
X7.09899 Y15.27147
X7.11680 Y15.58947
X7.24814 Y15.79963
X7.37646 Y15.96684
X7.56706 Y16.16781
X7.72645 Y16.30395
X7.93147 Y16.44723
X8.16869 Y16.57885
X8.49556 Y16.57837
X8.77186 Y16.54571
X9.06089 Y16.47979
X9.37026 Y16.37322
X9.78448 Y16.17032
X9.99111 Y16.14982
X10.17023 Y16.11236
X10.35766 Y16.05353
X10.76904 Y15.88546
X11.98788 Y14.66321
X12.15676 Y14.45727
X12.32240 Y14.19854
X12.33906 Y13.91150
X12.33906 Y12.28491
X12.26141 Y12.08638
X12.20594 Y11.88783
X12.17264 Y11.68930
X12.16154 Y11.49078
X12.16954 Y10.67221
X12.30734 Y10.45212
X12.47277 Y10.25966
X12.59149 Y10.21577
X14.50842 Y10.21577
G04 P0 ( dwell for no time -- G64 should not smooth over this point )
G00 Z2.00000 ( retract )

G00 X14.34764 Y7.63463 ( rapid move to begin. )
F100.00000
G01 Z-0.20000
G04 P0 ( dwell for no time -- G64 should not smooth over this point )
F200.00000
X14.34764 Y7.63463
X14.67975 Y8.21225
X14.67977 Y9.74079
X14.58594 Y10.05329
X14.50842 Y10.21577
X12.59149 Y10.21577
X12.47277 Y10.25966
X12.30734 Y10.45212
X12.16954 Y10.67221
X12.16154 Y11.49078
X12.17264 Y11.68930
X12.20594 Y11.88783
X12.26141 Y12.08638
X12.33906 Y12.28491
X12.33906 Y13.91150
X12.32240 Y14.19854
X12.13611 Y14.48513
X11.92070 Y14.73380
X10.76904 Y15.88546
X10.35766 Y16.05353
X10.17023 Y16.11236
X9.99111 Y16.14982
X9.78448 Y16.17032
X9.37026 Y16.37322
X9.06089 Y16.47979
X8.70450 Y16.55643
X8.43422 Y16.58160
X8.16869 Y16.57885
X7.97285 Y16.47256
X7.75634 Y16.32686
X7.56706 Y16.16781
X7.39901 Y15.99326
X7.22424 Y15.76483
X7.11680 Y15.58947
X7.09899 Y15.32011
X7.10994 Y15.06252
X7.14847 Y14.80212
X7.24204 Y14.45699
X7.32226 Y14.24805
X7.47328 Y13.93929
X7.66345 Y13.63192
X8.22528 Y13.58262
X8.63424 Y13.59570
X9.60025 Y14.11917
X9.81262 Y14.03294
X10.07191 Y13.90055
X10.29451 Y13.75509
X10.43945 Y13.63855
X10.59238 Y13.26542
X10.66751 Y12.91305
X10.68075 Y12.66309
X10.64432 Y12.31757
X10.56906 Y12.03998
X10.47272 Y11.80368
X10.33061 Y11.54079
X10.12233 Y11.23919
X9.76896 Y10.83790
X9.71405 Y10.70536
X9.71870 Y10.07485
X9.77310 Y9.65685
X10.12814 Y9.45502
X10.43945 Y9.32106
X10.71638 Y9.17874
X10.95428 Y8.99741
X11.15313 Y8.77704
X11.31298 Y8.51766
X11.47307 Y8.21080
X11.77096 Y7.78748
X12.37960 Y7.51885
X12.69916 Y7.32060
X13.04975 Y7.15340
X13.55839 Y6.94270
X14.06311 Y7.16749
X14.34764 Y7.63463
G04 P0 ( dwell for no time -- G64 should not smooth over this point )
G00 Z2.00000 ( retract )

G00 X19.75901 Y3.83745 ( rapid move to begin. )
F100.00000
G01 Z-0.20000
G04 P0 ( dwell for no time -- G64 should not smooth over this point )
F200.00000
X19.75901 Y3.83745
X19.74179 Y4.16267
X19.69404 Y4.44040
X19.62891 Y4.68088
X19.45043 Y4.87144
X19.16158 Y5.11771
X18.89958 Y5.29122
X18.70798 Y5.39526
X18.23001 Y5.59069
X17.81792 Y5.70367
X17.63265 Y5.98688
X17.38807 Y6.29025
X16.99463 Y6.66714
X16.56463 Y6.77377
X15.88957 Y6.85017
X14.99100 Y7.03234
X14.06311 Y7.16749
X13.55839 Y6.94270
X13.62417 Y6.35802
X13.69372 Y5.97865
X13.83253 Y5.46338
X13.90980 Y5.24517
X14.09179 Y4.83544
X14.38554 Y4.35325
X14.61162 Y4.07151
X14.75549 Y3.91990
X15.14589 Y3.58706
X15.46898 Y3.37616
X15.66047 Y3.27220
X16.22066 Y3.03608
X16.41073 Y2.85226
X16.58538 Y2.70918
X16.75505 Y2.67116
X17.12681 Y2.49791
X17.52328 Y2.35780
X18.03885 Y2.24695
X18.38523 Y2.21777
X18.73166 Y2.22498
X19.08583 Y2.27002
X19.43480 Y2.35102
X19.49554 Y2.65930
X19.69404 Y3.29117
X19.74179 Y3.56890
X19.75901 Y3.83745
G04 P0 ( dwell for no time -- G64 should not smooth over this point )
G00 Z2.00000 ( retract )

G00 X22.02974 Y2.65518 ( rapid move to begin. )
F100.00000
G01 Z-0.20000
G04 P0 ( dwell for no time -- G64 should not smooth over this point )
F200.00000
X22.02974 Y2.65518
X22.15687 Y2.73867
X22.24036 Y2.86580
X23.06878 Y4.86580
X23.17983 Y5.20194
X23.25103 Y5.57794
X23.15390 Y5.87527
X23.02322 Y6.17260
X22.85898 Y6.46991
X22.66121 Y6.76724
X22.24351 Y6.81245
X21.75690 Y6.51807
X21.42967 Y6.35076
X21.05662 Y6.19551
X20.78812 Y6.21578
X20.33496 Y6.28421
X19.83290 Y6.42962
X19.57669 Y6.54253
X19.35571 Y6.66851
X19.16142 Y6.80773
X18.98759 Y6.96208
X18.74037 Y7.25167
X18.60786 Y7.45850
X18.48843 Y7.69564
X18.37273 Y8.00237
X17.99770 Y8.37496
X17.83516 Y8.50828
X17.53750 Y8.68575
X17.23875 Y8.81379
X17.03666 Y9.31390
X16.75978 Y9.59078
X16.56958 Y9.74079
X14.67977 Y9.74079
X14.67975 Y8.21225
X14.06311 Y7.16749
X14.99100 Y7.03234
X15.88957 Y6.85017
X16.56463 Y6.77377
X16.99463 Y6.66714
X17.38807 Y6.29025
X17.63265 Y5.98688
X17.81792 Y5.70367
X18.23001 Y5.59069
X18.70798 Y5.39526
X18.98632 Y5.23814
X19.16158 Y5.11771
X19.39076 Y4.92803
X19.62891 Y4.68088
X19.70867 Y4.37172
X19.74806 Y4.10316
X19.75901 Y3.89412
X19.74806 Y3.62841
X19.70867 Y3.35986
X19.63800 Y3.08211
X19.49554 Y2.65930
X19.43480 Y2.35102
X19.73229 Y2.24901
X20.02975 Y2.21503
X20.96714 Y2.21503
X22.02974 Y2.65518
G04 P0 ( dwell for no time -- G64 should not smooth over this point )
G00 Z2.00000 ( retract )

G00 X26.99974 Y9.81938 ( rapid move to begin. )
F100.00000
G01 Z-0.20000
G04 P0 ( dwell for no time -- G64 should not smooth over this point )
F200.00000
X26.99974 Y9.81938
X26.99834 Y13.62524
X21.99924 Y18.62460
X21.20369 Y18.62579
X20.45975 Y17.45856
X19.95484 Y16.70690
X19.47382 Y16.06290
X18.49234 Y14.92349
X18.15503 Y14.46943
X17.93976 Y14.13494
X17.33445 Y13.56771
X16.96552 Y13.27119
X16.79036 Y13.15092
X16.38579 Y12.91457
X15.84528 Y12.89629
X15.21409 Y12.94968
X14.90233 Y12.58448
X14.67975 Y12.21930
X14.67975 Y10.69078
X16.96346 Y10.69319
X17.15477 Y10.72530
X17.49023 Y10.85054
X17.76633 Y10.91796
X18.02909 Y10.94333
X18.61715 Y10.94602
X18.82965 Y10.82065
X19.05975 Y10.71290
X19.82536 Y10.39578
X20.08807 Y10.47480
X20.41149 Y10.54374
X20.94976 Y10.62918
X21.32543 Y10.71595
X21.70109 Y10.85080
X22.09373 Y10.85080
X22.68766 Y10.27369
X22.90056 Y10.11118
X23.11346 Y9.98227
X23.32636 Y9.88697
X23.69073 Y9.96518
X24.00378 Y10.07739
X24.28623 Y10.15481
X24.55425 Y10.19919
X24.85268 Y10.21562
X25.20030 Y10.18961
X25.46347 Y10.13851
X26.04449 Y9.94923
X26.19750 Y9.91316
X26.50683 Y9.86370
X26.99974 Y9.81938
G04 P0 ( dwell for no time -- G64 should not smooth over this point )
G00 Z2.00000 ( retract )

G00 X26.99974 Y9.81936 ( rapid move to begin. )
F100.00000
G01 Z-0.20000
G04 P0 ( dwell for no time -- G64 should not smooth over this point )
F200.00000
X26.99974 Y9.81936
X26.50683 Y9.86370
X26.19750 Y9.91316
X26.04449 Y9.94923
X25.46347 Y10.13851
X25.20030 Y10.18961
X24.85268 Y10.21562
X24.55425 Y10.19919
X24.28623 Y10.15481
X24.00378 Y10.07739
X23.69073 Y9.96518
X23.32636 Y9.88697
X23.11346 Y9.98227
X22.90056 Y10.11118
X22.68766 Y10.27369
X22.09373 Y10.85080
X21.70109 Y10.85080
X21.32543 Y10.71595
X20.94976 Y10.62918
X20.41149 Y10.54374
X20.08807 Y10.47480
X19.82536 Y10.39578
X19.05975 Y10.71290
X18.82965 Y10.82065
X18.61715 Y10.94602
X18.02909 Y10.94333
X17.76633 Y10.91796
X17.49023 Y10.85054
X17.15477 Y10.72530
X16.96346 Y10.69319
X14.67975 Y10.69078
X14.58594 Y10.37828
X14.50842 Y10.21577
X14.58594 Y10.05329
X14.67977 Y9.74079
X16.56958 Y9.74079
X16.75978 Y9.59078
X17.03666 Y9.31390
X17.23875 Y8.81379
X17.53750 Y8.68575
X17.83516 Y8.50828
X17.99770 Y8.37496
X18.37273 Y8.00237
X18.55525 Y7.55553
X18.68650 Y7.33016
X18.83023 Y7.13458
X18.98759 Y6.96208
X19.16142 Y6.80773
X19.44255 Y6.61535
X19.83290 Y6.42962
X20.13734 Y6.33127
X20.50958 Y6.25185
X21.05662 Y6.19551
X21.42967 Y6.35076
X21.75690 Y6.51807
X22.24351 Y6.81245
X22.66121 Y6.76724
X22.85898 Y6.46991
X23.02322 Y6.17260
X23.15390 Y5.87527
X23.25103 Y5.57794
X23.17983 Y5.20194
X23.06878 Y4.86580
X22.24036 Y2.86580
X22.15687 Y2.73867
X22.02974 Y2.65518
X20.96714 Y2.21503
X20.02975 Y2.21503
X19.73229 Y2.24901
X19.43480 Y2.35102
X19.08583 Y2.27002
X18.73166 Y2.22498
X18.38523 Y2.21777
X18.03885 Y2.24695
X17.52328 Y2.35780
X17.12681 Y2.49791
X16.75505 Y2.67116
X16.58538 Y2.70918
X16.41073 Y2.85226
X16.22066 Y3.03608
X15.84530 Y3.18427
X15.46898 Y3.37616
X15.14589 Y3.58706
X14.86303 Y3.81787
X14.61162 Y4.07151
X14.38554 Y4.35325
X14.18094 Y4.67093
X13.99636 Y5.03552
X13.83253 Y5.46338
X13.69372 Y5.97865
X13.62417 Y6.35802
X13.55839 Y6.94270
X13.04975 Y7.15340
X12.69916 Y7.32060
X12.37960 Y7.51885
X11.77096 Y7.78748
X11.47307 Y8.21080
X11.31298 Y8.51766
X11.15313 Y8.77704
X10.95428 Y8.99741
X10.71638 Y9.17874
X10.43945 Y9.32106
X10.12814 Y9.45502
X9.77310 Y9.65685
X9.03947 Y8.92319
X8.92248 Y8.78951
X8.83894 Y8.65583
X8.78880 Y8.52218
X8.77209 Y8.38850
X8.77209 Y6.98850
X8.78733 Y6.86084
X8.83305 Y6.73318
X8.90922 Y6.60554
X9.01588 Y6.47788
X9.35923 Y6.37491
X9.77498 Y6.19569
X9.88870 Y5.75215
X9.93587 Y5.40964
X9.94420 Y5.25066
X9.87610 Y5.07829
X9.73274 Y4.78980
X9.57358 Y4.53826
X9.39744 Y4.31502
X9.25357 Y4.16344
X9.18728 Y4.13326
X8.92685 Y4.05152
X8.71788 Y4.00712
X8.46886 Y3.97880
X8.22528 Y3.97697
X7.98172 Y4.00075
X7.73267 Y4.05152
X7.33889 Y4.18843
X7.18657 Y4.35508
X7.00745 Y4.59630
X6.84367 Y4.87453
X6.74824 Y5.07461
X6.56562 Y5.59912
X6.47329 Y6.01278
X6.54563 Y6.28662
X6.66191 Y6.62637
X6.86368 Y6.89404
X6.87415 Y6.94489
X6.91332 Y7.19990
X6.93569 Y7.53549
X6.93173 Y8.05624
X7.01062 Y8.39917
X7.03691 Y8.74209
X7.03343 Y9.26708
X3.64832 Y9.26708
X3.64408 Y11.74208
X3.67121 Y12.05875
X3.75251 Y12.37543
X4.25213 Y12.23042
X4.84009 Y11.99164
X5.12371 Y11.93540
X5.39280 Y11.93827
X5.57443 Y11.97119
X5.82046 Y12.05552
X6.06605 Y12.16786
X6.11654 Y12.54122
X6.11187 Y13.02865
X6.07049 Y13.29580
X5.97905 Y13.58640
X5.88304 Y13.79606
X5.74761 Y14.02781
X5.46590 Y14.40139
X5.46590 Y14.62300
X5.97072 Y15.83629
X6.10214 Y16.05955
X6.21847 Y16.19920
X7.16079 Y17.14261
X7.72815 Y17.37532
X7.92078 Y17.41451
X11.34280 Y17.41070
X11.55590 Y17.35350
X13.02905 Y16.74329
X14.11851 Y15.65384
X14.31627 Y15.09328
X14.49776 Y14.33675
X14.63029 Y13.96718
X14.82239 Y13.56652
X14.95988 Y13.32923
X15.21409 Y12.94968
X15.84528 Y12.89629
X16.38579 Y12.91457
X16.79036 Y13.15092
X17.17499 Y13.43164
X17.93976 Y14.13494
X18.15503 Y14.46943
X18.49234 Y14.92349
X19.47382 Y16.06290
X19.74590 Y16.41932
X20.45975 Y17.45856
X21.20366 Y18.62579
X5.00044 Y18.62442
X-0.00026 Y13.61826
X0.00111 Y6.62645
X6.00016 Y0.62720
X21.99909 Y0.62715
X26.99839 Y5.62632
X26.99974 Y9.81936

G04 P0 ( dwell for no time -- G64 should not smooth over this point )
G00 Z10.000 ( retract )

M5 ( Spindle off. )
M9 ( Coolant off. )
M2 ( Program end. )

