( pcb2gcode 1.3.2 )
( Software-independent Gcode )
( This file uses a mill head of 1.00000mm to drill the 5 bit sizes. )
( Bit sizes: [0.50000] [0.55000] [0.90000] [1.00100] [1.01600] )

G94       (Millimeters per minute feed rate.)
G21       (Units == Millimeters.)
G90       (Absolute coordinates.)
S10000    (RPM spindle speed.)
F60.00000 (Feedrate)
M3        (Spindle on clockwise.)
G00 Z2.00000

G0 X2.84480 Y6.74180
G1 Z-2.00000
G0 Z2.00000

G0 X2.84480 Y13.74180
G1 Z-2.00000
G0 Z2.00000

G0 X5.86980 Y7.59180
G1 Z-2.00000
G0 Z2.00000

G0 X5.86980 Y12.59180
G1 Z-2.00000
G0 Z2.00000

G0 X10.36580 Y7.68880
G1 Z-2.00000
G0 Z2.00000

G0 X10.36580 Y12.68880
G1 Z-2.00000
G0 Z2.00000

G0 X20.38580 Y12.75580
G1 Z-2.00000
G0 Z2.00000

G0 X20.38580 Y7.75580
G1 Z-2.00000
G0 Z2.00000

G0 X8.95580 Y5.13580
G1 Z-2.00000
G0 Z2.00000

G0 X16.57580 Y5.13580
G1 Z-2.00000
G0 Z2.00000

G0 X19.11580 Y3.86580
G1 Z-2.00000
G0 Z2.00000

G0 X21.65580 Y3.86580
G1 Z-2.00000
G0 Z2.00000

G0 X16.57580 Y15.29580
G1 Z-2.00000
G0 Z2.00000

G0 X8.95580 Y15.29580
G1 Z-2.00000
G0 Z2.00000

G0 X25.46580 Y8.94580
G1 Z-2.00000
G0 Z2.00000

G0 X25.46580 Y11.48580
G1 Z-2.00000
G0 Z2.00000

G00 Z10.000 ( All done -- retract )

M5      (Spindle off.)
M9      (Coolant off.)
M2      (Program end.)

