( pcb2gcode 1.3.2 )
( Software-independent Gcode )

G94 ( Millimeters per minute feed rate. )
G21 ( Units == Millimeters. )

G90 ( Absolute coordinates. )
S10000 ( RPM spindle speed. )
F60.00000 ( Feedrate. )

F60.00000 ( Feedrate. )
M3 ( Spindle on clockwise. )
G04 P0 ( dwell for no time -- G64 should not smooth over this point )
G00 Z2.00000 ( retract )

G00 X22.71610 Y0.13545 ( rapid move to begin. )
G01 Z-0.25000 F30.00000 ( plunge. )
G04 P0 ( dwell for no time -- G64 should not smooth over this point )
F60.00000
X22.71610 Y0.13545
X22.81659 Y0.16525
X22.97864 Y0.27353
X27.97406 Y5.26694
X28.08645 Y5.43516
X28.12580 Y5.63323
X28.12580 Y8.87578
X28.12580 Y10.37578
X28.12580 Y13.61833
X28.08632 Y13.81658
X27.97411 Y13.98455
X22.98103 Y18.97682
X22.88763 Y19.05025
X22.71560 Y19.11636
X22.61880 Y19.12579
X14.87607 Y19.12579
X13.37607 Y19.12579
X5.63333 Y19.12579
X5.52810 Y19.11461
X5.43465 Y19.08614
X5.27303 Y18.97804
X0.27757 Y13.98463
X0.21117 Y13.90256
X0.13662 Y13.72189
X0.12580 Y13.61826
X0.12580 Y6.63323
X0.16565 Y6.43412
X0.27358 Y6.27293
X2.77843 Y3.77282
X3.84009 Y2.71316
X6.34494 Y0.21305
X6.43392 Y0.16568
X6.62619 Y0.12722
X13.92115 Y0.13095
X15.42115 Y0.13172
X22.71610 Y0.13545
G01 Z-0.50000 F30.00000 ( plunge. )
G04 P0 ( dwell for no time -- G64 should not smooth over this point )
F60.00000
X22.71610 Y0.13545
X22.81659 Y0.16525
X22.97864 Y0.27353
X27.97406 Y5.26694
X28.08645 Y5.43516
X28.12580 Y5.63323
X28.12580 Y8.87578
X28.12580 Y10.37578
X28.12580 Y13.61833
X28.08632 Y13.81658
X27.97411 Y13.98455
X22.98103 Y18.97682
X22.88763 Y19.05025
X22.71560 Y19.11636
X22.61880 Y19.12579
X14.87607 Y19.12579
X13.37607 Y19.12579
X5.63333 Y19.12579
X5.52810 Y19.11461
X5.43465 Y19.08614
X5.27303 Y18.97804
X0.27757 Y13.98463
X0.21117 Y13.90256
X0.13662 Y13.72189
X0.12580 Y13.61826
X0.12580 Y6.63323
X0.16565 Y6.43412
X0.27358 Y6.27293
X2.77843 Y3.77282
X3.84009 Y2.71316
X6.34494 Y0.21305
X6.43392 Y0.16568
X6.62619 Y0.12722
X13.92115 Y0.13095
X15.42115 Y0.13172
X22.71610 Y0.13545
G01 Z-0.75000 F30.00000 ( plunge. )
G04 P0 ( dwell for no time -- G64 should not smooth over this point )
F60.00000
X22.71610 Y0.13545
X22.81659 Y0.16525
X22.97864 Y0.27353
X27.97406 Y5.26694
X28.08645 Y5.43516
X28.12580 Y5.63323
X28.12580 Y8.87578
Z-0.60000
X28.12580 Y10.37578
Z-0.75000 F30.00000
F60.00000X28.12580 Y13.61833
X28.08632 Y13.81658
X27.97411 Y13.98455
X22.98103 Y18.97682
X22.88763 Y19.05025
X22.71560 Y19.11636
X22.61880 Y19.12579
X14.87607 Y19.12579
Z-0.60000
X13.37607 Y19.12579
Z-0.75000 F30.00000
F60.00000X5.63333 Y19.12579
X5.52810 Y19.11461
X5.43465 Y19.08614
X5.27303 Y18.97804
X0.27757 Y13.98463
X0.21117 Y13.90256
X0.13662 Y13.72189
X0.12580 Y13.61826
X0.12580 Y6.63323
X0.16565 Y6.43412
X0.27358 Y6.27293
X2.77843 Y3.77282
Z-0.60000
X3.84009 Y2.71316
Z-0.75000 F30.00000
F60.00000X6.34494 Y0.21305
X6.43392 Y0.16568
X6.62619 Y0.12722
X13.92115 Y0.13095
Z-0.60000
X15.42115 Y0.13172
Z-0.75000 F30.00000
F60.00000X22.71610 Y0.13545
G01 Z-1.00000 F30.00000 ( plunge. )
G04 P0 ( dwell for no time -- G64 should not smooth over this point )
F60.00000
X22.71610 Y0.13545
X22.81659 Y0.16525
X22.97864 Y0.27353
X27.97406 Y5.26694
X28.08645 Y5.43516
X28.12580 Y5.63323
X28.12580 Y8.87578
Z-0.60000
X28.12580 Y10.37578
Z-1.00000 F30.00000
F60.00000X28.12580 Y13.61833
X28.08632 Y13.81658
X27.97411 Y13.98455
X22.98103 Y18.97682
X22.88763 Y19.05025
X22.71560 Y19.11636
X22.61880 Y19.12579
X14.87607 Y19.12579
Z-0.60000
X13.37607 Y19.12579
Z-1.00000 F30.00000
F60.00000X5.63333 Y19.12579
X5.52810 Y19.11461
X5.43465 Y19.08614
X5.27303 Y18.97804
X0.27757 Y13.98463
X0.21117 Y13.90256
X0.13662 Y13.72189
X0.12580 Y13.61826
X0.12580 Y6.63323
X0.16565 Y6.43412
X0.27358 Y6.27293
X2.77843 Y3.77282
Z-0.60000
X3.84009 Y2.71316
Z-1.00000 F30.00000
F60.00000X6.34494 Y0.21305
X6.43392 Y0.16568
X6.62619 Y0.12722
X13.92115 Y0.13095
Z-0.60000
X15.42115 Y0.13172
Z-1.00000 F30.00000
F60.00000X22.71610 Y0.13545
G01 Z-1.25000 F30.00000 ( plunge. )
G04 P0 ( dwell for no time -- G64 should not smooth over this point )
F60.00000
X22.71610 Y0.13545
X22.81659 Y0.16525
X22.97864 Y0.27353
X27.97406 Y5.26694
X28.08645 Y5.43516
X28.12580 Y5.63323
X28.12580 Y8.87578
Z-0.60000
X28.12580 Y10.37578
Z-1.25000 F30.00000
F60.00000X28.12580 Y13.61833
X28.08632 Y13.81658
X27.97411 Y13.98455
X22.98103 Y18.97682
X22.88763 Y19.05025
X22.71560 Y19.11636
X22.61880 Y19.12579
X14.87607 Y19.12579
Z-0.60000
X13.37607 Y19.12579
Z-1.25000 F30.00000
F60.00000X5.63333 Y19.12579
X5.52810 Y19.11461
X5.43465 Y19.08614
X5.27303 Y18.97804
X0.27757 Y13.98463
X0.21117 Y13.90256
X0.13662 Y13.72189
X0.12580 Y13.61826
X0.12580 Y6.63323
X0.16565 Y6.43412
X0.27358 Y6.27293
X2.77843 Y3.77282
Z-0.60000
X3.84009 Y2.71316
Z-1.25000 F30.00000
F60.00000X6.34494 Y0.21305
X6.43392 Y0.16568
X6.62619 Y0.12722
X13.92115 Y0.13095
Z-0.60000
X15.42115 Y0.13172
Z-1.25000 F30.00000
F60.00000X22.71610 Y0.13545
G01 Z-1.50000 F30.00000 ( plunge. )
G04 P0 ( dwell for no time -- G64 should not smooth over this point )
F60.00000
X22.71610 Y0.13545
X22.81659 Y0.16525
X22.97864 Y0.27353
X27.97406 Y5.26694
X28.08645 Y5.43516
X28.12580 Y5.63323
X28.12580 Y8.87578
Z-0.60000
X28.12580 Y10.37578
Z-1.50000 F30.00000
F60.00000X28.12580 Y13.61833
X28.08632 Y13.81658
X27.97411 Y13.98455
X22.98103 Y18.97682
X22.88763 Y19.05025
X22.71560 Y19.11636
X22.61880 Y19.12579
X14.87607 Y19.12579
Z-0.60000
X13.37607 Y19.12579
Z-1.50000 F30.00000
F60.00000X5.63333 Y19.12579
X5.52810 Y19.11461
X5.43465 Y19.08614
X5.27303 Y18.97804
X0.27757 Y13.98463
X0.21117 Y13.90256
X0.13662 Y13.72189
X0.12580 Y13.61826
X0.12580 Y6.63323
X0.16565 Y6.43412
X0.27358 Y6.27293
X2.77843 Y3.77282
Z-0.60000
X3.84009 Y2.71316
Z-1.50000 F30.00000
F60.00000X6.34494 Y0.21305
X6.43392 Y0.16568
X6.62619 Y0.12722
X13.92115 Y0.13095
Z-0.60000
X15.42115 Y0.13172
Z-1.50000 F30.00000
F60.00000X22.71610 Y0.13545
G01 Z-1.75000 F30.00000 ( plunge. )
G04 P0 ( dwell for no time -- G64 should not smooth over this point )
F60.00000
X22.71610 Y0.13545
X22.81659 Y0.16525
X22.97864 Y0.27353
X27.97406 Y5.26694
X28.08645 Y5.43516
X28.12580 Y5.63323
X28.12580 Y8.87578
Z-0.60000
X28.12580 Y10.37578
Z-1.75000 F30.00000
F60.00000X28.12580 Y13.61833
X28.08632 Y13.81658
X27.97411 Y13.98455
X22.98103 Y18.97682
X22.88763 Y19.05025
X22.71560 Y19.11636
X22.61880 Y19.12579
X14.87607 Y19.12579
Z-0.60000
X13.37607 Y19.12579
Z-1.75000 F30.00000
F60.00000X5.63333 Y19.12579
X5.52810 Y19.11461
X5.43465 Y19.08614
X5.27303 Y18.97804
X0.27757 Y13.98463
X0.21117 Y13.90256
X0.13662 Y13.72189
X0.12580 Y13.61826
X0.12580 Y6.63323
X0.16565 Y6.43412
X0.27358 Y6.27293
X2.77843 Y3.77282
Z-0.60000
X3.84009 Y2.71316
Z-1.75000 F30.00000
F60.00000X6.34494 Y0.21305
X6.43392 Y0.16568
X6.62619 Y0.12722
X13.92115 Y0.13095
Z-0.60000
X15.42115 Y0.13172
Z-1.75000 F30.00000
F60.00000X22.71610 Y0.13545
G01 Z-2.00000 F30.00000 ( plunge. )
G04 P0 ( dwell for no time -- G64 should not smooth over this point )
F60.00000
X22.71610 Y0.13545
X22.81659 Y0.16525
X22.97864 Y0.27353
X27.97406 Y5.26694
X28.08645 Y5.43516
X28.12580 Y5.63323
X28.12580 Y8.87578
Z-0.60000
X28.12580 Y10.37578
Z-2.00000 F30.00000
F60.00000X28.12580 Y13.61833
X28.08632 Y13.81658
X27.97411 Y13.98455
X22.98103 Y18.97682
X22.88763 Y19.05025
X22.71560 Y19.11636
X22.61880 Y19.12579
X14.87607 Y19.12579
Z-0.60000
X13.37607 Y19.12579
Z-2.00000 F30.00000
F60.00000X5.63333 Y19.12579
X5.52810 Y19.11461
X5.43465 Y19.08614
X5.27303 Y18.97804
X0.27757 Y13.98463
X0.21117 Y13.90256
X0.13662 Y13.72189
X0.12580 Y13.61826
X0.12580 Y6.63323
X0.16565 Y6.43412
X0.27358 Y6.27293
X2.77843 Y3.77282
Z-0.60000
X3.84009 Y2.71316
Z-2.00000 F30.00000
F60.00000X6.34494 Y0.21305
X6.43392 Y0.16568
X6.62619 Y0.12722
X13.92115 Y0.13095
Z-0.60000
X15.42115 Y0.13172
Z-2.00000 F30.00000
F60.00000X22.71610 Y0.13545

G04 P0 ( dwell for no time -- G64 should not smooth over this point )
G00 Z10.000 ( retract )

M5 ( Spindle off. )
M9 ( Coolant off. )
M2 ( Program end. )

